src/assets/icon/group.svg

<svg width="28" height="28" viewBox="0 0 28 28" fill="none" xmlns="http://www.w3.org/2000/svg">
<mask id="mask0_408_4374" style="mask-type:alpha" maskUnits="userSpaceOnUse" x="0" y="0" width="28" height="28">
<rect width="28" height="28" fill="#D9D9D9"/>
</mask>
<g mask="url(#mask0_408_4374)">
<path d="M2.09796 19.9317C2.09796 19.3305 2.25312 18.794 2.56346 18.322C2.87379 17.8501 3.28825 17.483 3.80683 17.2207C4.91556 16.6784 6.0304 16.2602 7.15137 15.9662C8.27254 15.6724 9.50464 15.5255 10.8477 15.5255C12.1909 15.5255 13.423 15.6724 14.544 15.9662C15.6651 16.2602 16.7801 16.6784 17.8888 17.2207C18.4074 17.483 18.8218 17.8501 19.1322 18.322C19.4425 18.794 19.5977 19.3305 19.5977 19.9317V20.7531C19.5977 21.2227 19.4253 21.6355 19.0805 21.9915C18.7358 22.3475 18.3173 22.5255 17.8252 22.5255H3.87012C3.37818 22.5255 2.95983 22.3532 2.61508 22.0084C2.27033 21.6635 2.09796 21.245 2.09796 20.7531V19.9317ZM24.1299 22.5255H21.4801C21.6267 22.2578 21.7385 21.9728 21.8155 21.6707C21.8925 21.3685 21.931 21.0626 21.931 20.7531V19.7882C21.931 19.0225 21.7436 18.2927 21.3687 17.5987C20.9936 16.9049 20.4616 16.3096 19.7727 15.8128C20.5549 15.9295 21.2976 16.11 22.0007 16.3545C22.7036 16.5991 23.3745 16.8881 24.0132 17.2216C24.616 17.5432 25.0815 17.9223 25.4097 18.3588C25.7379 18.7951 25.902 19.2716 25.902 19.7882V20.7531C25.902 21.245 25.7297 21.6635 25.3849 22.0084C25.0402 22.3532 24.6218 22.5255 24.1299 22.5255ZM10.8477 13.6408C9.72475 13.6408 8.76351 13.241 7.96396 12.4415C7.1644 11.6417 6.76462 10.6804 6.76462 9.55745C6.76462 8.43454 7.1644 7.4733 7.96396 6.67375C8.76351 5.874 9.72475 5.47412 10.8477 5.47412C11.9706 5.47412 12.9319 5.874 13.7317 6.67375C14.5312 7.4733 14.931 8.43454 14.931 9.55745C14.931 10.6804 14.5312 11.6417 13.7317 12.4415C12.9319 13.241 11.9706 13.6408 10.8477 13.6408ZM20.9212 9.55745C20.9212 10.6804 20.5215 11.6417 19.7219 12.4415C18.9224 13.241 17.9611 13.6408 16.8382 13.6408C16.7066 13.6408 16.5391 13.6258 16.3357 13.5959C16.1321 13.5659 15.9646 13.5331 15.8331 13.4973C16.2932 12.9441 16.6468 12.3304 16.8939 11.6563C17.1409 10.9822 17.2643 10.2821 17.2643 9.55629C17.2643 8.83023 17.1383 8.13286 16.8863 7.46416C16.6343 6.79566 16.2833 6.18025 15.8331 5.61791C16.0005 5.55802 16.1681 5.51913 16.3357 5.50125C16.5031 5.48316 16.6706 5.47412 16.8382 5.47412C17.9611 5.47412 18.9224 5.874 19.7219 6.67375C20.5215 7.4733 20.9212 8.43454 20.9212 9.55745ZM3.84767 20.7755H17.8477V19.9317C17.8477 19.6881 17.7867 19.4713 17.6648 19.2813C17.5431 19.0914 17.3498 18.9253 17.085 18.7832C16.1248 18.2881 15.1361 17.913 14.119 17.6579C13.1019 17.403 12.0114 17.2755 10.8477 17.2755C9.68411 17.2755 8.59376 17.403 7.57662 17.6579C6.55949 17.913 5.57083 18.2881 4.61067 18.7832C4.34583 18.9253 4.15246 19.0914 4.03054 19.2813C3.90862 19.4713 3.84767 19.6881 3.84767 19.9317V20.7755ZM10.8477 11.8908C11.4893 11.8908 12.0386 11.6623 12.4956 11.2054C12.9525 10.7484 13.181 10.1991 13.181 9.55745C13.181 8.91579 12.9525 8.36648 12.4956 7.90954C12.0386 7.45259 11.4893 7.22412 10.8477 7.22412C10.206 7.22412 9.65669 7.45259 9.19975 7.90954C8.74281 8.36648 8.51433 8.91579 8.51433 9.55745C8.51433 10.1991 8.74281 10.7484 9.19975 11.2054C9.65669 11.6623 10.206 11.8908 10.8477 11.8908Z" fill="black"/>
</g>
</svg>

<svg xmlns="http://www.w3.org/2000/svg" width="28" height="28" fill="none" xmlns:v="https://vecta.io/nano"><mask id="A" maskUnits="userSpaceOnUse" x="0" y="0" width="28" height="28" mask-type="alpha"><path fill="#d9d9d9" d="M0 0h28v28H0z"/></mask><g mask="url(#A)"><path d="M2.098 19.932c0-.601.155-1.138.466-1.61s.725-.839 1.243-1.101c1.109-.542 2.224-.96 3.345-1.255s2.353-.441 3.696-.441 2.575.147 3.696.441a18 18 0 0 1 3.345 1.255c.519.262.933.629 1.243 1.101s.465 1.009.465 1.61v.821c0 .47-.172.882-.517 1.238a1.68 1.68 0 0 1-1.255.534H3.87c-.492 0-.91-.172-1.255-.517a1.71 1.71 0 0 1-.517-1.255v-.821zm22.032 2.594h-2.65a3.65 3.65 0 0 0 .335-.855 3.7 3.7 0 0 0 .116-.918v-.965c0-.766-.187-1.495-.562-2.189s-.907-1.289-1.596-1.786a12.29 12.29 0 0 1 2.228.542 14.97 14.97 0 0 1 2.013.867c.603.322 1.068.701 1.396 1.137s.492.913.492 1.429v.965a1.71 1.71 0 0 1-.517 1.255c-.345.345-.763.517-1.255.517zm-13.282-8.885a3.93 3.93 0 0 1-2.884-1.199 3.93 3.93 0 0 1-1.199-2.884 3.93 3.93 0 0 1 1.199-2.884 3.93 3.93 0 0 1 2.884-1.2 3.93 3.93 0 0 1 2.884 1.2 3.93 3.93 0 0 1 1.199 2.884 3.93 3.93 0 0 1-1.199 2.884 3.93 3.93 0 0 1-2.884 1.199zm10.074-4.083a3.93 3.93 0 0 1-1.199 2.884 3.93 3.93 0 0 1-2.884 1.199c-.132 0-.299-.015-.503-.045l-.503-.099a6.19 6.19 0 0 0 1.061-1.841c.247-.674.37-1.374.37-2.1s-.126-1.423-.378-2.092a6.74 6.74 0 0 0-1.053-1.846c.167-.06.335-.099.503-.117s.335-.027.503-.027a3.93 3.93 0 0 1 2.884 1.2 3.93 3.93 0 0 1 1.199 2.884zM3.848 20.776h14v-.844c0-.244-.061-.46-.183-.65s-.315-.356-.58-.498a13.76 13.76 0 0 0-2.966-1.125c-1.017-.255-2.108-.382-3.271-.382s-2.254.127-3.271.382a13.76 13.76 0 0 0-2.966 1.125c-.265.142-.458.308-.58.498s-.183.407-.183.65v.844zm7-8.885c.642 0 1.191-.229 1.648-.685s.685-1.006.685-1.648-.228-1.191-.685-1.648-1.006-.685-1.648-.685-1.191.228-1.648.685-.685 1.006-.685 1.648.228 1.191.685 1.648 1.006.685 1.648.685z" fill="#000"/></g></svg>
